X:161
%%pagewidth 9in
%%vocalfont Baskerville10Pro 14
T:Love will find out the way
M:3/4
L:1/8
K:A
%%score 1 2
V:1 clef-treble
V:2 clef-bass octave=-1
V:1
c2A2(cd)|e2B2(ed)|c2B3A|A6|[Ec]2A2(cd)|
w:O-ver the* moun-tains, And* o-ver the waves; Un-der the|
V:2
[Ae]4[Ae]2|[Ge]4[EG]2|[FA]2[DAB]2[EGd]2|[Ac]2C2E2|A,4[Ae]2|
V:1
e2B2(ed)|c2B3A|A4||GA|(B3c)BA&E6|G2E2(AB)|c2A2(Bc)&E4E2|
w:foun-tains, And* un-der the graves; Under* floods* that are deep-est, Which* Nept-une o-*
V:2
[Ge]4[EG]2|[FA]2[DAB]2[EGd]2|[Ac]2A,2||z2|[^D(B]6|[B)E]4FG|A4G2|
V:1
[=DA=d]4cd|[Ae]2A2AB&x4F2|[B,G]FE2ed&x4[EB]2|c2B3A&[EA]2[FA]2[DG]2|[CA]6||
w:bey: O-ver rocks that are* steep-*est Love will find out the way.
V:2
F6|C4D2|E4G,2|A,2D,2E,2|A,6||

